X:2317
T:Fin as Oshin
T:(version 2) 
C:Jack Kermode, Purt Mooar 
C:Traditional
O:Isle of Man
Z:Collected by Mona Douglas
B:Kiaull Vannin #317 
M:4/4 
L:1/8 
Q:80 
K:G 
ee fe e2|e2 e2 g4|b3 a a4|f3 e e4|(dB) ga ff g2|e2 e2 e2 fg| 
a3 g f3 e|e4-e2 dB|BA Ae e2 dB|B2 AG B2 AB|G3 A F3 G|E8|| 

